X: 19628
T: Java Isle
R: reel
M: 4/4
K: Gmajor
|:DF|GGGB GFDF|GFGB GBcd|fgfd ccBc|dcBG GFDF|
GGGB GFDF|GFGB GBcd|fgfg bgfd|cBGF G2:|
|:Bc|dcdf gfgd|f2dc BBcB|GGGF DDFD|GBcA|
B2Bc|dcdf gfgd|f2dc BBcd|fgfg bgfd|cBGF G2:|

